X: 342
T:Coltin's Slow March,aka. JaW.341
T:Slow March. JaW.341
M:C
Q:120
C:"W..S..Coltins"
S:James Winder Ms, Lancashire, 1835-41
R:March
O:England
A:Wyresdale,Lancashire
H:1/8
Z:vmp.Chris Partington, Aug 2004
K:G
D>D|G4D2D>D|B4G2B>B|.B.A.B.c .e.d.e.f|g2G2zGGG|\
F3G/B/ dcBA|!
G2B/{c}d/ {ef}(g/f/e/d/) (c/B/A/G/)|\
A3B c/B/e/d/ c/B/A/G/|G/E/G/B/ A/G/F/E/D2d>d|!
^c3BA2B>B|A3GF2d>d|^c/d/c/d/ g/f/g/e/ d2c2|d2d>dd2:|!
|:d>e|d3e f>ef>d|g(f/e/) d/c/B/A/ GBdg|\
(e/d/g/f/) (e/d/c/B/) c/B/e/d/ c/B/A/G/|!
F/G/A/B/ A/F/G/E/ "Squ's"DDEF|\
G3A BAGF|E2E>E EEFG|A3B cB d/B/c/A/|!
G4z2d>d|g2d>A G>Bd>g|e2e>dc2c>A|\
(B/A/c/A/) (d/B/)(c/A/)G2~F2|G2G>GG2:|]
